X: 28468
T: Muñeira D'Antón
R: jig
M: 6/8
K: Amajor
|:d2B BcB|d2B cBc|ABc def|e2d dBc|
d2B BcB|d2B cBc|ABc def|1 gdB GBc:|2 gdB G2g||
|:fdf ece|dB2 d2B|ABc def|e2d d2g|
fdf ece|dB2 d2B|ABc def|1 gdB G2g:|2 gdB G3||
|:dgd BdB|BAB c3|ege cec|cBc d2B|
dgd BdB|BAB c2d|gfe dge|1 cBA G3:|2 cBA GBc||

